X:1
T:James Gibb editions
T:Lead us, O Father, in the paths of peace - Barnby
%%score ( 1 2 ) ( 3 4 )
L:1/8
Q:1/4=100
M:4/4
K:E
V:1 treble nm="Midi_74"
V:2 treble 
V:3 bass nm="Midi_74"
V:4 bass 
V:1
"^Longwood (10 10. 10 10.)""^Joseph Barnby\n(1838-96)""^Lead us, O Father, in the paths of peace""^William H. Burleigh\n(1812-71)" G4 G2 A2 | %1
 B2 G2 F2 E2 | E4 D4 | E8 || G4 G2 ^A2 | B2 d2 c2 G2 | B4 ^A4 | B8 || F4 E2 E2 | A4 G4 | %10
 B2 B2 A2 B2 | c8 || ^d4 e2 B2 | A2 A2 G2 B2 | E6 F2 | G8 || (G2 E2 F4) | E4 |] %18
V:2
 B,4 E2 E2 | E2 D2 C2 C2 | B,4 B,4 | B,8 || E4 G2 G2 | G2 F2 E2 G2 | F4 E4 | D8 || D4 E2 B,2 | %9
w: |||||||||
 C2 D2 E4 | E2 E2 E2 G2 | A8 || F4 E2 E2 | E2 F2 B,2 =D2 | C4 C4 | B,8 || (D2 E4 D2) | B,4 |] %18
w: |||||||A\- * *|men.|
V:3
 E,4 E,2 F,2 | G,2 B,2 A,2 G,2 | F,4 F,4 | G,8 || B,4 E2 E2 | D2 B,2 G,2 E2 | D4 C4 | B,8 || %8
"^1. Lead us, O Father, in the paths of peace:\nWithout Thy guiding hand we go astray,\nAnd doubts appal, and sorrows still increase;\nLead us through Christ, the true and living way.\n\n2. Lead us, O Father, in the paths of truth:\nUnhelped by Thee, in error's maze we grope,\nWhile passion stains and folly dims our youth,\nAnd age comes on uncheered by faith or hope." B,4 B,2 G,2 | %9
 A,4 B,4 | G,2 G,2 B,2 =D2 | C8 || B,4 B,2 B,2 | %13
 C2"^3. Lead us, O Father, in the paths of right:\nBlindly we stumble when we walk alone,\nInvolved in shadows of a darkening night;\nOnly with Thee we journey safely on.\n\n4. Lead us, O Father, to Thy heavenly rest,\nHowever rough and steep the path may be,\nThrough joy or sorrow, as Thou deemest best,\nuntil our lives are perfected in Thee." D2 E2 B,2 | %14
 B,4 A,4 | G,8 || (B,2 G,2 B,4) | G,4 |] %18
V:4
 E,4 C,2 C,2 | G,,2 G,,2 A,,2 A,,2 | B,,4 B,,4 | E,8 || E,4 C,2 C,2 | G,2 G,2 C,2 C,2 | F,4 F,4 | %7
 B,,8 || A,4 G,2 G,2 | F,4 E,4 | =D,2 D,2 C,2 B,,2 | A,,8 || A,4 G,2 G,2 | F,2 B,,2 E,2 G,,2 | %14
 A,,4 A,,4 | E,8 || (G,,2 C,2 B,,4) | E,4 |] %18

